T: Cloone, The
M: 4/4
L: 1/8
K: Dmaj
d|fedB ~A3F|FEDF ~A3d|fedB ~A3F|FEDE FEEd|!fedB ~A3F|FEDF ~A3B|d2fd ~a3f|1edBA FEE:|2edBA FEE2||!d2fd adfd|~a3b afef|d2fd adfd|ABde feef|!d2fd adfd|~a3b afea|bafd e2fe|1dBAF FEE2:|2dBAF FEE||!
